X:92
T:Onidror's
T


*****************************


13100 4 1.3403974 

<starthIt: Itherush n'tpenckar tupe Spade #75
Z:id:hn-jig-71
M:6/8
K:G
BAG FED|AFD DFA|1 ~G3 AGG:|2 AGF G


*****************************


13200 4 0.90630585 

<starhathppppl-netppstupieced  Andd>B:Ariath
F:Bredy|
FDD ~e3|dBA ~A3|efe dBd|~D3 fFA|1 GFE E2D:|2 DED E2


*****************************


13300 4 1.2590251 

<starto] eeec|GAB GAB|cAG A3:|
|:B2e fdB|~B3 BAG|~A3 BAB|cAG FAB|cBA GEE|E2B, E2E:|2 EDE B,2E|GEE E2g||
|


*****************************


13400 4 0.45277822 

<starath! G<bath ab|ag af|gfe gee|1 fed efg fgf:|
fef ege|dcA BcB|
~G3 AGA|B2A Beg|gdB BAG|~A3 ABc|ded dB


*****************************


13500 4 0.880681 

<start>
